X:1
T:[ID 1-83b]
T:[ID 1-83b]
T:Bezeichnung standardisiert: Boure oder Courante Bure [1. Stimme] Boure oder Courant [2. Stimme] In dieser Quelle auch als: Tantz
T:Urheber unbekannt Datum in der hier transkribierten schriftlichen Quelle: vermutlich um 1800
C:Urheber unbekannt
C:Datum in der hier transkribierten schriftlichen Quelle: vermutlich um 1800
L:1/8
M:4/4
K:A
V:1 treble nm="Viol. Primo"
V:1
 a2 e2 a2 e2 | c2 Bc Aceg | a2 e2 a2 e2 | c2 Bc A4 :: e2 (ef) e2 g2 | fgaf d4 | f2 (fg) f2 a2 | %7
 gabg e4 | B2 B2 B2 c2 | d4 e4 | c2 BA B2 AG | A4 A4 :| %12

